!!! Genre: Scheidemann Prelude
!!! Title: 5. Praeambulum in d
!!! Number: 1
!!! Level: 2
**kern	**kern	**kern	**kern
*clefF4	*clefF4	*clefG2	*clefG2
*k[b-]	*k[b-]	*k[b-]	*k[b-]
*met(c)	*met(c)	*met(c)	*met(c)
*d:	*d:	*d:	*d:
=1	=1	=1	=1
1D	1F#	1A	4a
.	.	.	.
.	.	.	8bL
.	.	.	8ccJ
.	.	.	4dd
.	.	.	.
.	.	.	4cc
.	.	.	.
=2	=2	=2	=2
1G	1D[	2.G	8b-L
.	.	.	8a
.	.	.	8b-
.	.	.	8ccJ
.	.	.	4b-
.	.	.	.
.	.	4A	4a
.	.	.	.
=3	=3	=3	=3
4GG	4D]	1B-	1g
.	.	.	.
8GGL	8DL	.	.
8AAJ	8CJ	.	.
4BB-	4D	.	.
.	.	.	.
4C	4E	.	.
.	.	.	.
=4	=4	=4	=4
1D	1F	4A	4f
.	.	.	.
.	.	8dL	8fL
.	.	8eJ	8gJ
.	.	4f	4a
.	.	.	.
.	.	4g	4b
.	.	.	.
=5	=5	=5	=5
2AA	4E	1a	1cc[
.	.	.	.
.	8AL	.	.
.	8BJ	.	.
4A	4c	.	.
.	.	.	.
4B	4d	.	.
.	.	.	.
=6	=6	=6	=6
4c	4e	4.g	4cc]
.	.	.	.
4G	4d	.	4b-
.	.	8f	.
4A	4c#	4e	4a
.	.	.	.
4B-	4d[	8dL	4g
.	.	8eJ	.
=7	=7	=7	=7
2A	8dL]	4f	2a
.	8dJ	.	.
.	4c#	4e	.
.	.	.	.
4D	4d	4f	4a
.	.	.	.
8DL	4f[	4a[	4dd[
8EJ	.	.	.
=8	=8	=8	=8
8FL	4f]	2a]	8ddL]
8GJ	.	.	8ddJ
4A	2e	.	4cc
.	.	.	.
4E	.	4g	4b
.	.	.	.
4F	8AL	4d	4a[
.	8BJ	.	.
=9	=9	=9	=9
2E	8cL	4.e	8aL]
.	8dJ	.	8aJ
.	4B	.	4g#
.	.	8d	.
2AA	2A	4c#	4a
.	.	.	.
.	.	4r	16eL
.	.	.	16f#
.	.	.	16g
.	.	.	16eJ
=10	=10	=10	=10
4r	4r	4r	4.a
.	.	.	.
4AA	4E	4c#	.
.	.	.	8g
4D	4F	2d[	4f
.	.	.	.
4C	4E	.	8gL
.	.	.	8aJ
=11	=11	=11	=11
4BB-	2.D	4d]	2b-
.	.	.	.
4AA	.	8eL	.
.	.	8fJ	.
2GG	.	8gL	8b-L
.	.	8f	8a
.	4G[	8e	8g
.	.	8dJ	8fJ
=12	=12	=12	=12
1AA	4G]	2c#	2e
.	.	.	.
.	4G	.	.
.	.	.	.
.	2F	2d	8dL
.	.	.	8e
.	.	.	8f
.	.	.	8gJ
=13	=13	=13	=13
1AA	4E	2d	8aL
.	.	.	8b
.	4D	.	8cc
.	.	.	8b-J
.	2E	8c#	4a
.	.	4d	.
.	.	.	4g
.	.	8c#	.
=14	=14	=14	=14
1D	1D	1d	1f#
*-	*-	*-	*-
